X:1
T:The Lakes of Ponchartrain
M:4/4
L:1/4
K:C
 C/2D/2| E G, C3/2 D/2| E C2 G| G G F E| D3| D/2E/2| F D B,3/2 A,/2|\
 G, G2 G| A G D _E| E3| E/2F/2| E G, C3/2 D/2| E C2 G| G G F E| D3|\
 D/2E/2| F D B, B,/2A,/2| G,/2 G3/2 G G/2G/2| =A G D E| C3|
